X: 41905
T: Wae's Me For Prince Charlie
R: hornpipe
M: 4/4
K: Amixolydian
dB||A3B d3B|BABd e3f|A3B dfed|B3A HA2:|
|:e3f a3b|afef d3f|1 e2ef aaba|f3e He3d:|2 A2AB dfed|B3A HA2||

